usr/share/icons/Mint-X/status/scalable/folder-open.svg

<?xml version="1.0" encoding="UTF-8" standalone="no"?>
<!-- Created with Inkscape (http://www.inkscape.org/) -->

<svg
   xmlns:dc="http://purl.org/dc/elements/1.1/"
   xmlns:cc="http://creativecommons.org/ns#"
   xmlns:rdf="http://www.w3.org/1999/02/22-rdf-syntax-ns#"
   xmlns:svg="http://www.w3.org/2000/svg"
   xmlns="http://www.w3.org/2000/svg"
   xmlns:xlink="http://www.w3.org/1999/xlink"
   xmlns:sodipodi="http://sodipodi.sourceforge.net/DTD/sodipodi-0.dtd"
   xmlns:inkscape="http://www.inkscape.org/namespaces/inkscape"
   version="1.0"
   width="128"
   height="128"
   id="svg2640"
   inkscape:version="0.47 r22583"
   sodipodi:docname="folder-open.svg"
   inkscape:export-filename="/usr/share/icons/Mintix/status/16/folder-open.png"
   inkscape:export-xdpi="11.25"
   inkscape:export-ydpi="11.25">
  <metadata
     id="metadata57">
    <rdf:RDF>
      <cc:Work
         rdf:about="">
        <dc:format>image/svg+xml</dc:format>
        <dc:type
           rdf:resource="http://purl.org/dc/dcmitype/StillImage" />
        <dc:title></dc:title>
      </cc:Work>
    </rdf:RDF>
  </metadata>
  <sodipodi:namedview
     pagecolor="#ffffff"
     bordercolor="#666666"
     borderopacity="1"
     objecttolerance="10"
     gridtolerance="10"
     guidetolerance="10"
     inkscape:pageopacity="0"
     inkscape:pageshadow="2"
     inkscape:window-width="640"
     inkscape:window-height="480"
     id="namedview55"
     showgrid="false"
     inkscape:zoom="1.859375"
     inkscape:cx="64"
     inkscape:cy="64"
     inkscape:window-x="0"
     inkscape:window-y="0"
     inkscape:window-maximized="0"
     inkscape:current-layer="svg2640" />
  <defs
     id="defs2642">
    <inkscape:perspective
       sodipodi:type="inkscape:persp3d"
       inkscape:vp_x="0 : 64 : 1"
       inkscape:vp_y="0 : 1000 : 0"
       inkscape:vp_z="128 : 64 : 1"
       inkscape:persp3d-origin="64 : 42.666667 : 1"
       id="perspective59" />
    <linearGradient
       id="linearGradient5060-820-682">
      <stop
         id="stop2491"
         style="stop-color:#000000;stop-opacity:1"
         offset="0" />
      <stop
         id="stop2493"
         style="stop-color:#000000;stop-opacity:0"
         offset="1" />
    </linearGradient>
    <radialGradient
       cx="605.71429"
       cy="486.64789"
       r="117.14286"
       fx="605.71429"
       fy="486.64789"
       id="radialGradient2488-98"
       xlink:href="#linearGradient5060-820-682"
       gradientUnits="userSpaceOnUse"
       gradientTransform="matrix(-8.2775052e-2,0,0,6.6416887e-2,62.347829,75.518568)" />
    <linearGradient
       id="linearGradient5060-179-852">
      <stop
         id="stop2485"
         style="stop-color:#000000;stop-opacity:1"
         offset="0" />
      <stop
         id="stop2487"
         style="stop-color:#000000;stop-opacity:0"
         offset="1" />
    </linearGradient>
    <radialGradient
       cx="605.71429"
       cy="486.64789"
       r="117.14286"
       fx="605.71429"
       fy="486.64789"
       id="radialGradient2486-887"
       xlink:href="#linearGradient5060-179-852"
       gradientUnits="userSpaceOnUse"
       gradientTransform="matrix(8.2775071e-2,0,0,6.6416887e-2,65.628912,75.518568)" />
    <linearGradient
       id="linearGradient5048-585-950">
      <stop
         id="stop2477"
         style="stop-color:#000000;stop-opacity:0"
         offset="0" />
      <stop
         id="stop2479"
         style="stop-color:#000000;stop-opacity:1"
         offset="0.5" />
      <stop
         id="stop2481"
         style="stop-color:#000000;stop-opacity:0"
         offset="1" />
    </linearGradient>
    <linearGradient
       x1="302.85715"
       y1="366.64789"
       x2="302.85715"
       y2="609.50507"
       id="linearGradient2484-239"
       xlink:href="#linearGradient5048-585-950"
       gradientUnits="userSpaceOnUse"
       gradientTransform="matrix(0.2134205,0,0,6.6416887e-2,-13.147881,75.518568)" />
    <linearGradient
       id="linearGradient3484-203">
      <stop
         id="stop2503"
         style="stop-color:#bdbdbd;stop-opacity:1"
         offset="0" />
      <stop
         id="stop2505"
         style="stop-color:#d0d0d0;stop-opacity:1"
         offset="1" />
    </linearGradient>
    <radialGradient
       cx="3"
       cy="5.01718"
       r="21"
       fx="3"
       fy="5.01718"
       id="radialGradient2448-277"
       xlink:href="#linearGradient3484-203"
       gradientUnits="userSpaceOnUse"
       gradientTransform="matrix(0,4.5810288,-7.2733208,0,40.564727,8.4207689)" />
    <linearGradient
       id="linearGradient6404-723">
      <stop
         id="stop2497"
         style="stop-color:#f9f9f9;stop-opacity:1"
         offset="0" />
      <stop
         id="stop2499"
         style="stop-color:#c9c9c9;stop-opacity:1"
         offset="1" />
    </linearGradient>
    <linearGradient
       x1="62.988873"
       y1="12.724592"
       x2="62.988873"
       y2="17.324797"
       id="linearGradient2446-617"
       xlink:href="#linearGradient6404-723"
       gradientUnits="userSpaceOnUse"
       gradientTransform="matrix(2.7209303,0,0,2.6722576,-139.90895,0.7861261)" />
    <linearGradient
       id="linearGradient3390-389">
      <stop
         id="stop2515"
         style="stop-color:#5e5e5e;stop-opacity:1"
         offset="0" />
      <stop
         id="stop2517"
         style="stop-color:#909090;stop-opacity:1"
         offset="1" />
    </linearGradient>
    <linearGradient
       x1="82.453476"
       y1="45.114193"
       x2="82.453476"
       y2="7.6327758"
       id="linearGradient2443-692"
       xlink:href="#linearGradient3390-389"
       gradientUnits="userSpaceOnUse"
       gradientTransform="matrix(2.6658408,0,0,2.6469079,-143.33284,0.950492)" />
    <linearGradient
       id="linearGradient7012-661-145-733-759-865-745-593">
      <stop
         id="stop2509"
         style="stop-color:#bababa;stop-opacity:1"
         offset="0" />
      <stop
         id="stop2511"
         style="stop-color:#838383;stop-opacity:1"
         offset="1" />
    </linearGradient>
    <radialGradient
       cx="63.969177"
       cy="14.113381"
       r="23.097054"
       fx="63.969177"
       fy="14.113381"
       id="radialGradient2441-409"
       xlink:href="#linearGradient7012-661-145-733-759-865-745-593"
       gradientUnits="userSpaceOnUse"
       gradientTransform="matrix(4.1712212,-2.5183476e-7,1.6467508e-7,2.688962,-229.83186,22.814774)" />
    <linearGradient
       id="linearGradient6129-963-697-142-998-580-273-210">
      <stop
         id="stop2521"
         style="stop-color:#0a0a0a;stop-opacity:0.498"
         offset="0" />
      <stop
         id="stop2523"
         style="stop-color:#0a0a0a;stop-opacity:0"
         offset="1" />
    </linearGradient>
    <linearGradient
       x1="22.934725"
       y1="49.629246"
       x2="22.934725"
       y2="36.599415"
       id="linearGradient2438-770"
       xlink:href="#linearGradient6129-963-697-142-998-580-273-210"
       gradientUnits="userSpaceOnUse"
       gradientTransform="matrix(3.036796,0,0,2.6219687,-8.8831095,4.6704719)" />
    <linearGradient
       id="linearGradient6087-437-184-795-110-662-495-767">
      <stop
         id="stop2527"
         style="stop-color:#ffffff;stop-opacity:0.40000001"
         offset="0" />
      <stop
         id="stop2529"
         style="stop-color:#ffffff;stop-opacity:0"
         offset="1" />
    </linearGradient>
    <radialGradient
       cx="32.264069"
       cy="14.298984"
       r="61"
       fx="32.264069"
       fy="14.298984"
       id="radialGradient2435-301"
       xlink:href="#linearGradient6087-437-184-795-110-662-495-767"
       gradientUnits="userSpaceOnUse"
       gradientTransform="matrix(0,1.1019148,-1.5096234,0,53.85015,9.2569441)" />
    <linearGradient
       id="linearGradient8265-821-176-38-919-66-249-929">
      <stop
         id="stop2533"
         style="stop-color:#ffffff;stop-opacity:0.2"
         offset="0" />
      <stop
         id="stop2535"
         style="stop-color:#ffffff;stop-opacity:0"
         offset="1" />
    </linearGradient>
    <linearGradient
       x1="11.566265"
       y1="22.292103"
       x2="15.214532"
       y2="33.95525"
       id="linearGradient2432-764"
       xlink:href="#linearGradient8265-821-176-38-919-66-249-929"
       gradientUnits="userSpaceOnUse"
       gradientTransform="matrix(2.6482074,0,0,2.640269,0.4315584,1.7937658)" />
  </defs>
  <g
     id="layer1">
    <g
       transform="matrix(1.0027339,0,0,0.9919518,-0.1633104,9.9335969)"
       id="g2479">
      <rect
         width="103.05159"
         height="16.129816"
         x="12.462574"
         y="99.870178"
         id="rect4173"
         style="opacity:0.3;fill:url(#linearGradient2484-239);fill-opacity:1;fill-rule:nonzero;stroke:none;stroke-width:1;stroke-linecap:round;stroke-linejoin:miter;marker:none;marker-start:none;marker-mid:none;marker-end:none;stroke-miterlimit:4;stroke-dasharray:none;stroke-dashoffset:0;stroke-opacity:1;visibility:visible;display:inline;overflow:visible" />
      <path
         d="M 115.51417,99.870734 C 115.51417,99.870734 115.51417,115.99966 115.51417,115.99966 C 119.77688,116.03002 125.81933,112.38599 125.81933,107.93416 C 125.81933,103.48233 121.06246,99.870734 115.51417,99.870734 z"
         id="path5058"
         style="opacity:0.3;fill:url(#radialGradient2486-887);fill-opacity:1;fill-rule:nonzero;stroke:none;stroke-width:1;stroke-linecap:round;stroke-linejoin:miter;marker:none;marker-start:none;marker-mid:none;marker-end:none;stroke-miterlimit:4;stroke-dasharray:none;stroke-dashoffset:0;stroke-opacity:1;visibility:visible;display:inline;overflow:visible" />
      <path
         d="M 12.462574,99.870734 C 12.462574,99.870734 12.462574,115.99966 12.462574,115.99966 C 8.1998627,116.03002 2.1574152,112.38599 2.1574152,107.93416 C 2.1574152,103.48233 6.9142788,99.870734 12.462574,99.870734 z"
         id="path5018"
         style="opacity:0.3;fill:url(#radialGradient2488-98);fill-opacity:1;fill-rule:nonzero;stroke:none;stroke-width:1;stroke-linecap:round;stroke-linejoin:miter;marker:none;marker-start:none;marker-mid:none;marker-end:none;stroke-miterlimit:4;stroke-dasharray:none;stroke-dashoffset:0;stroke-opacity:1;visibility:visible;display:inline;overflow:visible" />
    </g>
    <path
       d="M 13.662787,23.500315 C 11.784608,23.520815 10.500001,24.414617 10.500001,26.172572 L 10.500001,31.5 C 9.5393972,31.5 9.0229003,31.496869 8.3955999,31.5 C 6.7170422,31.50838 5.517981,32.444908 5.517981,34.332981 C 5.6116109,61.830632 5.4999992,63.254919 5.4999992,65.589523 C 9.4058145,65.589523 122.5,55.702886 122.5,51.44723 L 122.5,34.305133 C 122.5,32.547181 121.34214,31.479501 119.46395,31.5 L 57.500001,31.5 L 57.500001,26.30113 C 57.500001,24.543175 56.312566,23.500315 54.551734,23.500315 L 13.662787,23.500315 z"
       id="path3468"
       style="fill:url(#linearGradient2446-617);fill-opacity:1;stroke:url(#radialGradient2448-277);stroke-width:1.00000012;stroke-linecap:round;stroke-linejoin:round;stroke-miterlimit:4;stroke-dasharray:none;stroke-opacity:1;display:inline" />
    <path
       d="M 6.2500001,44.499996 L 121.74999,44.501042 C 123.4186,44.501042 124.5,45.654048 124.5,47.087508 L 121.78352,117.00371 C 121.8221,118.81745 121.23337,119.5366 119.29468,119.49857 L 9.3616428,119.453 C 7.6930472,119.453 6.0104813,118.3826 6.0104813,116.94913 L 3.5,47.087466 C 3.5,45.654004 4.5814044,44.499996 6.2500001,44.499996 z"
       id="path3369"
       style="fill:url(#radialGradient2441-409);fill-opacity:1;fill-rule:nonzero;stroke:url(#linearGradient2443-692);stroke-width:0.99999982;stroke-linecap:round;stroke-linejoin:round;marker:none;marker-start:none;marker-mid:none;marker-end:none;stroke-miterlimit:4;stroke-dasharray:none;stroke-dashoffset:0;stroke-opacity:1;visibility:visible;display:inline;overflow:visible;enable-background:accumulate" />
    <path
       d="M 5.7727205,44.000001 L 122.22726,44.001061 C 123.90966,44.001061 125,45.169441 125,46.622013 L 122.26107,117.47043 C 122.29997,119.30835 121.70637,120.03709 119.75166,119.99855 L 8.9100805,119.95238 C 7.2277005,119.95238 5.5312305,118.8677 5.5312305,117.41512 L 3.0000005,46.621971 C 3.0000005,45.169396 4.0903405,44.000001 5.7727205,44.000001 z"
       id="path6127"
       style="opacity:0.4;fill:url(#linearGradient2438-770);fill-opacity:1;stroke:none;stroke-width:1;stroke-linecap:round;stroke-linejoin:round;stroke-miterlimit:4;stroke-dashoffset:0;stroke-opacity:1" />
    <path
       d="M 6.2683292,45.561614 C 3.7990813,45.450369 4.6063039,48.830958 4.7006757,51.348383 C 5.4832994,73.221841 6.2689057,95.095245 7.0496654,116.96874 C 74.055045,147.22182 142.28903,45.561614 117.55369,45.561614 C 80.458574,45.561614 43.363451,45.561614 6.2683292,45.561614 z"
       id="path3405"
       style="fill:none;fill-opacity:1;fill-rule:nonzero;stroke:url(#radialGradient2435-301);stroke-width:0.99999982;stroke-linecap:round;stroke-linejoin:round;marker:none;marker-start:none;marker-mid:none;marker-end:none;stroke-miterlimit:4;stroke-dasharray:none;stroke-dashoffset:0;stroke-opacity:1;visibility:visible;display:inline;overflow:visible;enable-background:accumulate" />
    <path
       d="M 6.2797886,44.000001 C 4.3672309,44.000001 3.000231,45.424461 3.000231,47.122081 C 2.9999231,47.132485 2.9999231,47.142897 3.000231,47.153301 L 4.4057557,86.491509 C 4.4114183,86.644976 4.4836516,86.788373 4.6036209,86.884308 C 4.7235902,86.980243 4.8794038,87.019208 5.0304333,86.991042 L 123.75042,68.321004 C 123.99576,68.278356 124.17797,68.070202 124.18769,67.821471 L 124.99977,47.153301 C 125.00008,47.142897 125.00008,47.132485 124.99977,47.122081 C 124.99977,45.424467 123.63279,44.000002 121.72021,44.000001 L 6.2797886,44.000001 z"
       id="path3445"
       style="fill:url(#linearGradient2432-764);fill-opacity:1;fill-rule:nonzero;stroke:none;stroke-width:1;stroke-linecap:round;stroke-linejoin:round;marker:none;marker-start:none;marker-mid:none;marker-end:none;stroke-miterlimit:4;stroke-dasharray:none;stroke-dashoffset:0;stroke-opacity:1;visibility:visible;display:inline;overflow:visible;enable-background:accumulate" />
  </g>
</svg>

<?xml version="1.0" encoding="UTF-8" standalone="no"?>
<svg xmlns="http://www.w3.org/2000/svg" height="128" width="128" version="1.1" xmlns:xlink="http://www.w3.org/1999/xlink">
 <defs>
  <radialGradient id="k" stop-color="#fff" gradientUnits="userSpaceOnUse" cy="14.299" cx="32.264" gradientTransform="matrix(0,1.1019,-1.5096,0,53.85,9.2569)" r="61">
   <stop stop-opacity="0.4" offset="0"/>
   <stop stop-opacity="0" offset="1"/>
  </radialGradient>
  <linearGradient id="j" stop-color="#fff" y2="33.955" gradientUnits="userSpaceOnUse" x2="15.215" gradientTransform="matrix(2.6482 0 0 2.6403 .43156 1.7938)" y1="22.292" x1="11.566">
   <stop stop-opacity=".2" offset="0"/>
   <stop stop-opacity="0" offset="1"/>
  </linearGradient>
  <linearGradient id="i" stop-color="#0a0a0a" y2="36.599" gradientUnits="userSpaceOnUse" x2="22.935" gradientTransform="matrix(3.0368,0,0,2.622,-8.8831,4.6705)" y1="49.629" x1="22.935">
   <stop stop-opacity=".498" offset="0"/>
   <stop stop-opacity="0" offset="1"/>
  </linearGradient>
  <radialGradient id="d" gradientUnits="userSpaceOnUse" cy="14.113" cx="63.969" gradientTransform="matrix(4.1712,-2.5183e-7,1.6468e-7,2.689,-229.83,22.815)" r="23.097">
   <stop stop-color="#bababa" offset="0"/>
   <stop stop-color="#838383" offset="1"/>
  </radialGradient>
  <linearGradient id="h" y2="7.6328" gradientUnits="userSpaceOnUse" x2="82.453" gradientTransform="matrix(2.6658 0 0 2.6469 -143.33 .95049)" y1="45.114" x1="82.453">
   <stop stop-color="#5e5e5e" offset="0"/>
   <stop stop-color="#909090" offset="1"/>
  </linearGradient>
  <linearGradient id="g" y2="17.325" gradientUnits="userSpaceOnUse" x2="62.989" gradientTransform="matrix(2.7209 0 0 2.6723 -139.91 .78613)" y1="12.725" x1="62.989">
   <stop stop-color="#f9f9f9" offset="0"/>
   <stop stop-color="#c9c9c9" offset="1"/>
  </linearGradient>
  <radialGradient id="c" gradientUnits="userSpaceOnUse" cy="5.0172" cx="3" gradientTransform="matrix(0,4.581,-7.2733,0,40.565,8.4208)" r="21">
   <stop stop-color="#bdbdbd" offset="0"/>
   <stop stop-color="#d0d0d0" offset="1"/>
  </radialGradient>
  <radialGradient id="b" gradientUnits="userSpaceOnUse" cy="486.65" cx="605.71" gradientTransform="matrix(-.082998 0 0 .065882 62.353 84.845)" r="117.14">
   <stop offset="0"/>
   <stop stop-opacity="0" offset="1"/>
  </radialGradient>
  <radialGradient id="a" gradientUnits="userSpaceOnUse" cy="486.65" cx="605.71" gradientTransform="matrix(.082998 0 0 .065882 65.643 84.845)" r="117.14">
   <stop offset="0"/>
   <stop stop-opacity="0" offset="1"/>
  </radialGradient>
  <linearGradient id="f" y2="609.51" gradientUnits="userSpaceOnUse" x2="302.86" gradientTransform="matrix(0.214 0 0 .065882 -13.347 84.845)" y1="366.65" x1="302.86">
   <stop stop-opacity="0" offset="0"/>
   <stop offset=".5"/>
   <stop stop-opacity="0" offset="1"/>
  </linearGradient>
 </defs>
 <rect opacity=".3" height="16" width="103.33" y="109" x="12.333" fill="url(#f)"/>
 <path opacity=".3" d="m115.66 109v15.999c4.2742 0.0302 10.333-3.5846 10.333-8.0006s-4.7697-7.9985-10.333-7.9985z" fill="url(#a)"/>
 <path opacity=".3" d="m12.333 109v16c-4.2739 0.03-10.332-3.58-10.332-8 0-4.416 4.7697-7.9985 10.333-7.9985z" fill="url(#b)"/>
 <path stroke-linejoin="round" d="m13.663 23.5c-1.8782 0.0205-3.1628 0.9143-3.1628 2.6723v5.3274c-0.9606 0-1.4771-0.0031-2.1044 0-1.6786 0.0084-2.8776 0.94491-2.8776 2.833 0.09363 27.498-0.017982 28.922-0.017982 31.257 3.9058 0.001 117-9.886 117-14.142v-17.142c0-1.758-1.1579-2.8256-3.036-2.8051h-61.96v-5.1989c0-1.758-1.1874-2.8008-2.9483-2.8008h-40.889z" stroke="url(#c)" stroke-linecap="round" fill="url(#g)"/>
 <path stroke-linejoin="round" d="m6.25 44.5 115.5 0.001c1.6686 0 2.75 1.153 2.75 2.5865l-2.7165 69.916c0.0386 1.8137-0.55015 2.5329-2.4888 2.4949l-109.93-0.04c-1.6686 0-3.3512-1.0704-3.3512-2.5039l-2.5041-69.858c0-1.4335 1.0814-2.5875 2.75-2.5875z" stroke="url(#h)" stroke-linecap="round" fill="url(#d)"/>
 <path opacity=".4" d="m5.7727 44 116.45 0.0011c1.6824 0 2.7727 1.1684 2.7727 2.621l-2.7389 70.848c0.0389 1.8379-0.5547 2.5667-2.5094 2.5281l-110.83-0.05c-1.6824 0-3.3788-1.0847-3.3788-2.5373l-2.5241-70.792c0-1.4526 1.0903-2.622 2.7727-2.622z" fill="url(#i)"/>
 <path stroke-linejoin="round" d="m6.2683 45.562c-2.4692-0.112-1.662 3.269-1.5676 5.786 0.7826 21.874 1.5682 43.747 2.349 65.622 67.005 30.25 135.24-71.408 110.5-71.408h-111.29z" stroke="url(#k)" stroke-linecap="round" fill="none"/>
 <path d="m6.2798 44c-1.9126 0-3.2796 1.4245-3.2796 3.1221-0.0003079 0.0104-0.0003079 0.02082 0 0.03122l1.4055 39.338c0.00566 0.15347 0.077896 0.29686 0.19787 0.3928 0.11997 0.09593 0.27578 0.1349 0.42681 0.10673l118.72-18.67c0.24534-0.04265 0.42755-0.2508 0.43727-0.49953l0.81208-20.668c0.00031-0.0104 0.00031-0.02082 0-0.03122 0-1.6976-1.367-3.1221-3.2796-3.1221h-115.44z" fill="url(#j)"/>
</svg>
